austria/municipalities/41511.svg

<?xml version="1.0" encoding="UTF-8"?>
<!DOCTYPE svg PUBLIC "-//W3C//DTD SVG 1.1//EN" "http://www.w3.org/Graphics/SVG/1.1/DTD/svg11.dtd">
<svg xmlns="http://www.w3.org/2000/svg" version="1.1" width="166px" height="207px" style="shape-rendering:geometricPrecision; text-rendering:geometricPrecision; image-rendering:optimizeQuality; fill-rule:evenodd; clip-rule:evenodd" xmlns:xlink="http://www.w3.org/1999/xlink">
<g><path style="opacity:1" fill="#000000" d="M -0.5,-0.5 C 54.8333,-0.5 110.167,-0.5 165.5,-0.5C 165.5,43.8333 165.5,88.1667 165.5,132.5C 159.745,165.461 141.411,188.628 110.5,202C 105.336,203.369 100.336,204.869 95.5,206.5C 86.8333,206.5 78.1667,206.5 69.5,206.5C 29.5124,196.512 6.17911,171.179 -0.5,130.5C -0.5,86.8333 -0.5,43.1667 -0.5,-0.5 Z"/></g>
<g><path style="opacity:1" fill="#003265" d="M 87.5,107.5 C 85.4223,113.349 83.589,119.349 82,125.5C 79.436,111.453 73.2693,99.2862 63.5,89C 52.428,80.7066 42.928,82.2066 35,93.5C 32.1004,100.757 31.9338,107.924 34.5,115C 30.6929,122.017 29.5263,129.517 31,137.5C 31.6054,139.481 32.6054,139.815 34,138.5C 34.3333,143.167 34.6667,147.833 35,152.5C 35.4186,153.672 36.0853,154.672 37,155.5C 41.2952,147.612 47.7952,143.779 56.5,144C 63.9411,148.389 66.6078,154.889 64.5,163.5C 57.1735,162.591 50.0069,160.924 43,158.5C 36.5925,159.71 30.4259,161.543 24.5,164C 20.5567,164.522 16.8901,163.689 13.5,161.5C 8.65517,153.137 5.4885,144.137 4,134.5C 3.50001,90.8346 3.33334,47.1679 3.5,3.5C 56.1667,3.5 108.833,3.5 161.5,3.5C 161.667,47.8346 161.5,92.1679 161,136.5C 159.337,146.007 155.837,154.673 150.5,162.5C 146.705,164.432 142.705,165.765 138.5,166.5C 131.85,164.092 125.016,162.425 118,161.5C 111.501,162.614 105.001,163.614 98.5,164.5C 96.6337,149.529 102.967,143.363 117.5,146C 121.013,148.896 124.179,152.062 127,155.5C 128.221,154.728 129.221,153.728 130,152.5C 131.344,145.612 130.01,139.278 126,133.5C 114.746,123.612 104.413,124.612 95,136.5C 94,139.167 93,141.833 92,144.5C 92.3469,130.654 99.5136,123.654 113.5,123.5C 120.139,123.571 124.973,126.571 128,132.5C 128.249,135.177 129.249,137.51 131,139.5C 134.937,130.259 133.77,121.759 127.5,114C 134.219,102.802 131.886,93.8018 120.5,87C 113.797,84.6304 107.463,85.2971 101.5,89C 95.4763,94.2489 90.8096,100.416 87.5,107.5 Z"/></g>
<g><path style="opacity:1" fill="#010100" d="M 87.5,92.5 C 84.5,92.5 81.5,92.5 78.5,92.5C 79.3007,90.9582 79.634,89.2915 79.5,87.5C 76.4096,88.17 74.743,87.0033 74.5,84C 74.6002,81.63 75.6002,79.7966 77.5,78.5C 78.4963,72.2015 78.8297,65.8682 78.5,59.5C 73.5,59.5 68.5,59.5 63.5,59.5C 63.7634,62.7343 62.2634,64.0676 59,63.5C 55.9194,61.284 52.5861,59.284 49,57.5C 48.3333,55.8333 48.3333,54.1667 49,52.5C 51.7908,50.6784 54.2908,48.5117 56.5,46C 59.8469,44.7935 62.1803,45.7935 63.5,49C 68.4889,49.4993 73.4889,49.6659 78.5,49.5C 78.5,45.8333 78.5,42.1667 78.5,38.5C 76.5,38.5 74.5,38.5 72.5,38.5C 71.5603,42.9706 68.8937,44.3039 64.5,42.5C 63.6143,41.675 63.281,40.675 63.5,39.5C 61.6096,39.7035 60.1096,39.0368 59,37.5C 58.5034,35.1902 58.3367,32.8568 58.5,30.5C 61.1452,28.6501 63.8119,26.6501 66.5,24.5C 68.754,25.1237 70.4206,26.457 71.5,28.5C 73.7427,29.4742 76.076,29.8076 78.5,29.5C 78.6621,27.4727 78.4955,25.4727 78,23.5C 75.9916,22.2364 74.8249,20.4031 74.5,18C 76.4403,15.0079 78.4403,12.0079 80.5,9C 85.3683,7.1105 88.2016,8.94383 89,14.5C 92.2065,15.8197 93.2065,18.1531 92,21.5C 90.5557,23.1554 88.7224,23.822 86.5,23.5C 86.5,25.5 86.5,27.5 86.5,29.5C 89.5184,29.6646 92.5184,29.498 95.5,29C 96.6933,26.9733 98.36,25.4733 100.5,24.5C 103.281,26.9633 106.114,29.2966 109,31.5C 109.667,33.1667 109.667,34.8333 109,36.5C 106.842,37.8259 105.008,39.4925 103.5,41.5C 101.579,42.641 99.5787,42.8077 97.5,42C 96.0267,41.2904 95.3601,40.1238 95.5,38.5C 92.5,38.5 89.5,38.5 86.5,38.5C 86.5,42.1667 86.5,45.8333 86.5,49.5C 92.1764,49.6661 97.8431,49.4994 103.5,49C 104.839,46.9837 106.672,45.817 109,45.5C 120.388,49.8785 121.222,55.7118 111.5,63C 108.107,64.1675 105.441,63.3342 103.5,60.5C 97.8722,59.5046 92.2055,59.1712 86.5,59.5C 86.5,65.8333 86.5,72.1667 86.5,78.5C 91.2129,78.4676 92.7129,80.8009 91,85.5C 89.9887,86.3366 88.8221,86.67 87.5,86.5C 87.5,88.5 87.5,90.5 87.5,92.5 Z"/></g>
<g><path style="opacity:1" fill="#fe9900" d="M 86.5,16.5 C 84.8583,14.9192 82.8583,14.2525 80.5,14.5C 80.8152,9.95915 82.6485,8.95915 86,11.5C 86.4935,13.1341 86.6602,14.8008 86.5,16.5 Z"/></g>
<g><path style="opacity:1" fill="#fe9900" d="M 79.5,21.5 C 76.1608,19.8526 75.8274,17.8526 78.5,15.5C 79.4656,17.396 79.7989,19.396 79.5,21.5 Z"/></g>
<g><path style="opacity:1" fill="#cb0000" d="M 80.5,16.5 C 84.1611,16.4257 84.8277,17.4257 82.5,19.5C 81.0815,18.9953 80.4148,17.9953 80.5,16.5 Z"/></g>
<g><path style="opacity:1" fill="#fe9900" d="M 86.5,16.5 C 88.3109,16.572 89.6443,17.4053 90.5,19C 89.0479,20.8455 87.2146,22.3455 85,23.5C 84.5034,25.8098 84.3367,28.1432 84.5,30.5C 83.1667,30.5 81.8333,30.5 80.5,30.5C 80.7359,27.3915 80.4025,24.3915 79.5,21.5C 83.9611,23.0572 86.2944,21.3905 86.5,16.5 Z"/></g>
<g><path style="opacity:1" fill="#fe9900" d="M 63.5,32.5 C 62.8894,28.9711 64.2227,27.1378 67.5,27C 68.3567,27.6891 69.0233,28.5224 69.5,29.5C 67.296,30.2063 65.296,31.2063 63.5,32.5 Z"/></g>
<g><path style="opacity:1" fill="#fe9900" d="M 97.5,30.5 C 98.2066,28.8656 99.3732,27.5323 101,26.5C 102.188,27.5634 102.688,28.8967 102.5,30.5C 100.833,30.5 99.1667,30.5 97.5,30.5 Z"/></g>
<g><path style="opacity:1" fill="#fe9900" d="M 97.5,30.5 C 97.5,31.1667 97.5,31.8333 97.5,32.5C 96.1991,33.8845 96.1991,35.3845 97.5,37C 99.5454,37.4901 101.545,37.3235 103.5,36.5C 101.405,41.6732 98.7386,41.8398 95.5,37C 92.1832,36.5017 88.8499,36.335 85.5,36.5C 86.7279,34.9902 86.7279,33.4902 85.5,32C 89.5845,31.7668 93.5845,31.2668 97.5,30.5 Z"/></g>
<g><path style="opacity:1" fill="#fe9900" d="M 103.5,36.5 C 103.714,34.8561 103.38,33.3561 102.5,32C 106.442,30.2051 108.108,31.7051 107.5,36.5C 106.167,36.5 104.833,36.5 103.5,36.5 Z"/></g>
<g><path style="opacity:1" fill="#cb0000" d="M 66.5,31.5 C 69.1402,32.7936 69.1402,34.127 66.5,35.5C 65.3744,34.1916 65.3744,32.8583 66.5,31.5 Z"/></g>
<g><path style="opacity:1" fill="#fe9900" d="M 65.5,37.5 C 69.9872,37.8589 71.6539,36.0256 70.5,32C 73.5541,31.1786 76.5541,31.3452 79.5,32.5C 78.1667,33.5 78.1667,34.5 79.5,35.5C 76.8929,36.3184 74.2263,36.8184 71.5,37C 70.8333,38.3333 70.1667,39.6667 69.5,41C 66.5096,41.8469 65.1762,40.6802 65.5,37.5 Z"/></g>
<g><path style="opacity:1" fill="#cb0000" d="M 81.5,31.5 C 84.4282,32.637 84.7615,33.9704 82.5,35.5C 80.3576,34.5629 80.0243,33.2296 81.5,31.5 Z"/></g>
<g><path style="opacity:1" fill="#fe9900" d="M 63.5,32.5 C 63.3915,34.5138 64.0582,36.1805 65.5,37.5C 63.8333,37.5 62.1667,37.5 60.5,37.5C 60.5,35.8333 60.5,34.1667 60.5,32.5C 61.5,32.5 62.5,32.5 63.5,32.5 Z"/></g>
<g><path style="opacity:1" fill="#cb0000" d="M 97.5,32.5 C 98.9778,32.238 100.311,32.5713 101.5,33.5C 99.5365,36.1939 98.2032,35.8606 97.5,32.5 Z"/></g>
<g><path style="opacity:1" fill="#fe9900" d="M 85.5,36.5 C 84.1667,41.5 84.1667,46.5 85.5,51.5C 83.7988,51.0338 82.2988,51.0338 81,51.5C 80.5008,46.8452 80.3342,42.1785 80.5,37.5C 82.2915,37.634 83.9582,37.3007 85.5,36.5 Z"/></g>
<g><path style="opacity:1" fill="#fe9900" d="M 56.5,52.5 C 55.2801,54.0496 55.2801,55.7163 56.5,57.5C 51.6241,58.5956 49.9574,56.9289 51.5,52.5C 54.4386,51.544 56.772,49.8774 58.5,47.5C 59.737,47.5565 60.737,48.0565 61.5,49C 59.9466,50.6918 58.28,51.8585 56.5,52.5 Z"/></g>
<g><path style="opacity:1" fill="#fe9900" d="M 111.5,51.5 C 109.389,50.6201 107.389,50.6201 105.5,51.5C 106.028,47.9869 107.862,46.9869 111,48.5C 111.483,49.448 111.649,50.448 111.5,51.5 Z"/></g>
<g><path style="opacity:1" fill="#000000" d="M 111.5,51.5 C 113.357,55.0804 112.357,57.4137 108.5,58.5C 104.594,57.4532 103.594,55.1199 105.5,51.5C 107.389,50.6201 109.389,50.6201 111.5,51.5 Z"/></g>
<g><path style="opacity:1" fill="#fe9900" d="M 85.5,57.5 C 84.8968,65.1426 84.2301,72.8093 83.5,80.5C 82.5224,80.0233 81.6891,79.3567 81,78.5C 80.6667,72.1667 80.3333,65.8333 80,59.5C 79.5,59 79,58.5 78.5,58C 73.1667,57.3333 67.8333,57.3333 62.5,58C 61.6634,59.0113 61.33,60.1779 61.5,61.5C 59.8333,61.5 58.1667,61.5 56.5,61.5C 56.5,60.1667 56.5,58.8333 56.5,57.5C 61.4103,58.7541 63.077,56.9208 61.5,52C 67.4908,51.5005 73.4908,51.3338 79.5,51.5C 78.5707,56.9516 80.5707,58.9516 85.5,57.5 Z"/></g>
<g><path style="opacity:1" fill="#fe9900" d="M 85.5,51.5 C 92.1667,51.5 98.8333,51.5 105.5,51.5C 103.594,55.1199 104.594,57.4532 108.5,58.5C 112.357,57.4137 113.357,55.0804 111.5,51.5C 115.903,50.8933 117.236,52.56 115.5,56.5C 113.356,58.491 111.022,60.1577 108.5,61.5C 106.603,61.2718 105.27,60.2718 104.5,58.5C 98.2015,57.5037 91.8682,57.1703 85.5,57.5C 86.8333,55.5 86.8333,53.5 85.5,51.5 Z"/></g>
<g><path style="opacity:1" fill="#cb0000" d="M 56.5,52.5 C 61.8333,53.5 61.8333,54.5 56.5,55.5C 56.5,54.5 56.5,53.5 56.5,52.5 Z"/></g>
<g><path style="opacity:1" fill="#cb0000" d="M 81.5,52.5 C 85.0749,53.2068 85.2416,54.2068 82,55.5C 80.3167,54.8235 80.1501,53.8235 81.5,52.5 Z"/></g>
<g><path style="opacity:1" fill="#cb0000" d="M 106.5,52.5 C 111.833,53.5 111.833,54.5 106.5,55.5C 106.5,54.5 106.5,53.5 106.5,52.5 Z"/></g>
<g><path style="opacity:1" fill="#fe9900" d="M 87.5,79.5 C 91.6321,82.6171 90.9654,84.6171 85.5,85.5C 86.6808,87.198 86.6808,88.8647 85.5,90.5C 82.803,86.2491 83.4697,82.5824 87.5,79.5 Z"/></g>
<g><path style="opacity:1" fill="#fe9900" d="M 76.5,80.5 C 78.5824,80.472 80.4157,81.1387 82,82.5C 82.8184,85.2272 82.6517,87.8938 81.5,90.5C 80.3192,88.8647 80.3192,87.198 81.5,85.5C 81.1667,85.1667 80.8333,84.8333 80.5,84.5C 78.2312,87.0583 76.5645,86.5583 75.5,83C 76.2524,82.3292 76.5858,81.4959 76.5,80.5 Z"/></g>
<g><path style="opacity:1" fill="#fefffe" d="M 44.5,86.5 C 49.8128,85.9318 54.8128,86.7652 59.5,89C 69.5294,98.0611 76.0294,109.228 79,122.5C 80.0107,127.542 81.1773,132.542 82.5,137.5C 83.9056,121.502 89.4056,107.169 99,94.5C 109.652,85.0245 119.319,86.0245 128,97.5C 128.667,101.833 128.667,106.167 128,110.5C 118.807,95.5372 108.14,94.5372 96,107.5C 88.062,121.329 83.7287,136.329 83,152.5C 82.8106,132.828 75.6439,116.328 61.5,103C 49.3747,95.1513 40.8747,97.9847 36,111.5C 33.7608,101.462 36.5941,93.129 44.5,86.5 Z"/></g>
<g><path style="opacity:1" fill="#fe9900" d="M 78.5,92.5 C 81.5,92.5 84.5,92.5 87.5,92.5C 87.67,93.8221 87.3366,94.9887 86.5,96C 83.1769,96.932 80.1769,96.432 77.5,94.5C 77.8333,93.8333 78.1667,93.1667 78.5,92.5 Z"/></g>
<g><path style="opacity:1" fill="#000000" d="M 87.5,92.5 C 87.7805,97.2909 87.7805,102.291 87.5,107.5C 84.5,107.5 81.5,107.5 78.5,107.5C 78.7059,103.102 78.3726,98.7685 77.5,94.5C 80.1769,96.432 83.1769,96.932 86.5,96C 87.3366,94.9887 87.67,93.8221 87.5,92.5 Z"/></g>
<g><path style="opacity:1" fill="#fe9900" d="M 80.5,98.5 C 81.8333,98.5 83.1667,98.5 84.5,98.5C 84.5,100.833 84.5,103.167 84.5,105.5C 83.1667,105.5 81.8333,105.5 80.5,105.5C 80.5,103.167 80.5,100.833 80.5,98.5 Z"/></g>
<g><path style="opacity:1" fill="#003266" d="M 46.5,101.5 C 53.0168,100.837 58.3501,103.004 62.5,108C 58.4606,106.999 54.294,106.166 50,105.5C 47.0011,105.481 44.1678,106.148 41.5,107.5C 41.1667,107.333 40.8333,107.167 40.5,107C 42.0711,104.591 44.0711,102.758 46.5,101.5 Z"/></g>
<g><path style="opacity:1" fill="#003266" d="M 108.5,101.5 C 117.27,99.986 122.77,103.319 125,111.5C 115.983,104.904 106.983,104.904 98,111.5C 98.2218,109.544 99.0552,107.71 100.5,106C 103.099,104.205 105.766,102.705 108.5,101.5 Z"/></g>
<g><path style="opacity:1" fill="#fefffe" d="M 48.5,107.5 C 58.7054,108.684 66.8721,113.35 73,121.5C 75.7978,127.227 77.7978,133.227 79,139.5C 80.0852,147.849 81.2519,156.182 82.5,164.5C 84.3324,153.846 86.1657,143.179 88,132.5C 90.5086,124.648 94.6753,117.815 100.5,112C 114.429,105.448 124.263,109.281 130,123.5C 130.667,126.5 130.667,129.5 130,132.5C 123.847,121.437 114.681,118.271 102.5,123C 94.1796,126.794 89.6796,133.294 89,142.5C 88.056,149.843 87.2226,157.176 86.5,164.5C 88.396,165.466 90.396,165.799 92.5,165.5C 91.9749,155.35 93.8082,145.683 98,136.5C 107.305,126.254 116.305,126.254 125,136.5C 128.505,141.522 129.172,146.855 127,152.5C 121.581,143.042 113.748,140.209 103.5,144C 101.333,145.5 99.5,147.333 98,149.5C 96.2407,154.717 95.5741,160.051 96,165.5C 97.2991,166.98 98.9658,167.646 101,167.5C 106.907,166.485 112.741,165.152 118.5,163.5C 123.715,164.294 128.715,165.794 133.5,168C 137.71,168.738 141.876,168.572 146,167.5C 147.713,168.137 147.879,169.137 146.5,170.5C 143.683,173.818 140.683,176.985 137.5,180C 131.345,180.464 125.345,179.631 119.5,177.5C 113.713,179.072 107.88,180.405 102,181.5C 93.7912,180.319 85.7912,178.319 78,175.5C 71.1806,176.941 64.3472,178.274 57.5,179.5C 51.6811,178.254 45.8478,176.921 40,175.5C 34.9339,177.174 29.7672,177.674 24.5,177C 21.1123,174.214 18.4456,170.881 16.5,167C 20.1667,166.667 23.8333,166.333 27.5,166C 31.9747,163.522 36.8081,162.022 42,161.5C 47.0295,161.931 51.8628,163.098 56.5,165C 60.1516,165.499 63.8183,165.665 67.5,165.5C 69.5717,156.148 66.905,148.648 59.5,143C 49.8982,140.091 42.3982,142.925 37,151.5C 34.9533,138.901 39.9533,130.901 52,127.5C 62.9046,129.739 68.9046,136.405 70,147.5C 70.3333,153.167 70.6667,158.833 71,164.5C 72.6667,165.833 74.3333,165.833 76,164.5C 79.6405,149.896 76.4739,137.063 66.5,126C 51.611,116.677 40.4444,119.844 33,135.5C 30.9192,121.831 36.0858,112.497 48.5,107.5 Z"/></g>
<g><path style="opacity:1" fill="#003266" d="M 62.5,127.5 C 52.1231,123.284 43.6231,125.618 37,134.5C 38.25,129.568 41.4166,126.068 46.5,124C 52.5113,122.622 57.8446,123.789 62.5,127.5 Z"/></g>
<g><path style="opacity:1" fill="#003266" d="M 62.5,127.5 C 68.0527,130.066 71.5527,134.4 73,140.5C 74.5147,147.767 74.8481,155.101 74,162.5C 73.7143,154.735 72.7143,147.068 71,139.5C 68.8833,134.911 66.05,130.911 62.5,127.5 Z"/></g>
<g><path style="opacity:1" fill="#fefffe" d="M -0.5,130.5 C 6.17911,171.179 29.5124,196.512 69.5,206.5C 46.1667,206.5 22.8333,206.5 -0.5,206.5C -0.5,181.167 -0.5,155.833 -0.5,130.5 Z"/></g>
<g><path style="opacity:1" fill="#fefffe" d="M 165.5,132.5 C 165.5,157.167 165.5,181.833 165.5,206.5C 142.167,206.5 118.833,206.5 95.5,206.5C 100.336,204.869 105.336,203.369 110.5,202C 141.411,188.628 159.745,165.461 165.5,132.5 Z"/></g>
<g><path style="opacity:1" fill="#cb0000" d="M 36.5,178.5 C 43.5281,179.287 50.5281,180.287 57.5,181.5C 63.8517,180.719 70.185,179.719 76.5,178.5C 84.6998,180.788 93.0331,182.454 101.5,183.5C 107.704,182.823 113.871,181.823 120,180.5C 124.651,181.121 129.151,182.288 133.5,184C 114.723,199.782 93.0565,205.782 68.5,202C 53.2161,198.858 39.8828,192.025 28.5,181.5C 31.1836,180.247 33.8503,179.247 36.5,178.5 Z"/></g>
</svg>

<svg xmlns="http://www.w3.org/2000/svg" width="166" height="207" style="shape-rendering:geometricPrecision;text-rendering:geometricPrecision;image-rendering:optimizeQuality;fill-rule:evenodd;clip-rule:evenodd"><path style="opacity:1" d="M-.5-.5h166v133c-5.755 32.961-24.089 56.128-55 69.5a236.853 236.853 0 0 0-15 4.5h-26c-39.988-9.988-63.32-35.321-70-76V-.5z"/><path style="opacity:1" fill="#003265" d="M87.5 107.5a212.623 212.623 0 0 0-5.5 18c-2.564-14.047-8.73-26.214-18.5-36.5-11.072-8.293-20.572-6.793-28.5 4.5-2.9 7.257-3.066 14.424-.5 21.5-3.807 7.017-4.974 14.517-3.5 22.5.605 1.981 1.605 2.315 3 1l1 14a7.292 7.292 0 0 0 2 3c4.295-7.888 10.795-11.721 19.5-11.5 7.441 4.389 10.108 10.889 8 19.5a105.21 105.21 0 0 1-21.5-5 93.429 93.429 0 0 0-18.5 5.5c-3.943.522-7.61-.311-11-2.5-4.845-8.363-8.011-17.363-9.5-27-.5-43.665-.667-87.332-.5-131h158c.167 44.335 0 88.668-.5 133-1.663 9.507-5.163 18.173-10.5 26a42.39 42.39 0 0 1-12 4 97.45 97.45 0 0 0-20.5-5 575.04 575.04 0 0 1-19.5 3c-1.866-14.971 4.467-21.137 19-18.5a69.115 69.115 0 0 1 9.5 9.5 9.568 9.568 0 0 0 3-3c1.344-6.888.01-13.222-4-19-11.254-9.888-21.587-8.888-31 3l-3 8c.347-13.846 7.514-20.846 21.5-21 6.639.071 11.473 3.071 14.5 9 .249 2.677 1.249 5.01 3 7 3.937-9.241 2.77-17.741-3.5-25.5 6.719-11.198 4.386-20.198-7-27-6.703-2.37-13.037-1.703-19 2-6.024 5.249-10.69 11.416-14 18.5z"/><path style="opacity:1" fill="#010100" d="M87.5 92.5h-9c.8-1.542 1.134-3.209 1-5-3.09.67-4.757-.497-5-3.5.1-2.37 1.1-4.203 3-5.5a91.124 91.124 0 0 0 1-19h-15c.263 3.234-1.237 4.568-4.5 4a72.004 72.004 0 0 0-10-6c-.667-1.667-.667-3.333 0-5a36.553 36.553 0 0 0 7.5-6.5c3.347-1.206 5.68-.206 7 3 4.989.5 9.989.666 15 .5v-11h-6c-.94 4.47-3.606 5.804-8 4-.886-.825-1.219-1.825-1-3-1.89.203-3.39-.463-4.5-2a24.939 24.939 0 0 1-.5-7c2.645-1.85 5.312-3.85 8-6 2.254.624 3.92 1.957 5 4a13.117 13.117 0 0 0 7 1 18.436 18.436 0 0 0-.5-6c-2.008-1.264-3.175-3.097-3.5-5.5a430.55 430.55 0 0 1 6-9c4.868-1.89 7.702-.056 8.5 5.5 3.207 1.32 4.207 3.653 3 7-1.444 1.655-3.278 2.322-5.5 2v6a40.936 40.936 0 0 0 9-.5 10.915 10.915 0 0 1 5-4.5 151.207 151.207 0 0 0 8.5 7c.667 1.667.667 3.333 0 5a19.736 19.736 0 0 0-5.5 5c-1.921 1.141-3.921 1.308-6 .5-1.473-.71-2.14-1.876-2-3.5h-9v11c5.676.166 11.343 0 17-.5 1.339-2.016 3.172-3.183 5.5-3.5 11.388 4.379 12.222 10.212 2.5 17.5-3.393 1.168-6.059.334-8-2.5a73.123 73.123 0 0 0-17-1v19c4.713-.032 6.213 2.3 4.5 7-1.011.837-2.178 1.17-3.5 1v6z"/><path style="opacity:1" fill="#fe9900" d="M86.5 16.5c-1.642-1.58-3.642-2.248-6-2 .315-4.54 2.148-5.54 5.5-3 .493 1.634.66 3.3.5 5zM79.5 21.5c-3.34-1.647-3.673-3.647-1-6a9.864 9.864 0 0 1 1 6z"/><path style="opacity:1" fill="#cb0000" d="M80.5 16.5c3.661-.074 4.328.926 2 3-1.418-.505-2.085-1.505-2-3z"/><path style="opacity:1" fill="#fe9900" d="M86.5 16.5c1.81.072 3.144.905 4 2.5-1.452 1.846-3.285 3.346-5.5 4.5a24.939 24.939 0 0 0-.5 7h-4c.236-3.108-.097-6.108-1-9 4.461 1.557 6.794-.11 7-5zM63.5 32.5c-.61-3.529.723-5.362 4-5.5a7.253 7.253 0 0 1 2 2.5c-2.204.706-4.204 1.706-6 3zM97.5 30.5c.707-1.634 1.873-2.968 3.5-4 1.188 1.063 1.688 2.397 1.5 4h-5zM97.5 30.5v2c-1.3 1.385-1.3 2.885 0 4.5 2.045.49 4.045.324 6-.5-2.095 5.173-4.761 5.34-8 .5a50.441 50.441 0 0 0-10-.5c1.228-1.51 1.228-3.01 0-4.5a88.665 88.665 0 0 0 12-1.5zM103.5 36.5c.214-1.644-.12-3.144-1-4.5 3.942-1.795 5.608-.295 5 4.5h-4z"/><path style="opacity:1" fill="#cb0000" d="M66.5 31.5c2.64 1.294 2.64 2.627 0 4-1.126-1.308-1.126-2.642 0-4z"/><path style="opacity:1" fill="#fe9900" d="M65.5 37.5c4.487.359 6.154-1.474 5-5.5 3.054-.821 6.054-.655 9 .5-1.333 1-1.333 2 0 3a34.208 34.208 0 0 1-8 1.5l-2 4c-2.99.847-4.324-.32-4-3.5z"/><path style="opacity:1" fill="#cb0000" d="M81.5 31.5c2.928 1.137 3.261 2.47 1 4-2.142-.937-2.476-2.27-1-4z"/><path style="opacity:1" fill="#fe9900" d="M63.5 32.5c-.108 2.014.558 3.68 2 5h-5v-5h3z"/><path style="opacity:1" fill="#cb0000" d="M97.5 32.5c1.478-.262 2.811.071 4 1-1.963 2.694-3.297 2.36-4-1z"/><path style="opacity:1" fill="#fe9900" d="M85.5 36.5c-1.333 5-1.333 10 0 15-1.701-.466-3.201-.466-4.5 0a98.433 98.433 0 0 1-.5-14c1.791.134 3.458-.2 5-1zM56.5 52.5c-1.22 1.55-1.22 3.216 0 5-4.876 1.096-6.543-.571-5-5 2.939-.956 5.272-2.623 7-5 1.237.056 2.237.556 3 1.5-1.553 1.692-3.22 2.858-5 3.5zM111.5 51.5c-2.111-.88-4.111-.88-6 0 .528-3.513 2.362-4.513 5.5-3 .483.948.649 1.948.5 3z"/><path style="opacity:1" d="M111.5 51.5c1.857 3.58.857 5.914-3 7-3.906-1.047-4.906-3.38-3-7 1.889-.88 3.889-.88 6 0z"/><path style="opacity:1" fill="#fe9900" d="M85.5 57.5c-.603 7.643-1.27 15.31-2 23a7.253 7.253 0 0 1-2.5-2l-1-19-1.5-1.5a64.247 64.247 0 0 0-16 0c-.837 1.011-1.17 2.178-1 3.5h-5v-4c4.91 1.254 6.577-.58 5-5.5 5.99-.5 11.99-.666 18-.5-.93 5.452 1.07 7.452 6 6zM85.5 51.5h20c-1.906 3.62-.906 5.953 3 7 3.857-1.086 4.857-3.42 3-7 4.403-.607 5.736 1.06 4 5a33.134 33.134 0 0 1-7 5c-1.897-.228-3.23-1.228-4-3a91.124 91.124 0 0 0-19-1c1.333-2 1.333-4 0-6z"/><path style="opacity:1" fill="#cb0000" d="M56.5 52.5c5.333 1 5.333 2 0 3v-3zM81.5 52.5c3.575.707 3.742 1.707.5 3-1.683-.676-1.85-1.676-.5-3zM106.5 52.5c5.333 1 5.333 2 0 3v-3z"/><path style="opacity:1" fill="#fe9900" d="M87.5 79.5c4.132 3.117 3.465 5.117-2 6 1.18 1.698 1.18 3.365 0 5-2.697-4.25-2.03-7.918 2-11zM76.5 80.5c2.082-.028 3.916.639 5.5 2 .818 2.727.652 5.394-.5 8-1.18-1.635-1.18-3.302 0-5l-1-1c-2.269 2.558-3.936 2.058-5-1.5.752-.67 1.086-1.504 1-2.5z"/><path style="opacity:1" fill="#fefffe" d="M44.5 86.5c5.313-.568 10.313.265 15 2.5 10.03 9.061 16.53 20.228 19.5 33.5a244.957 244.957 0 0 0 3.5 15c1.406-15.998 6.906-30.331 16.5-43 10.652-9.475 20.319-8.475 29 3a42.479 42.479 0 0 1 0 13c-9.193-14.963-19.86-15.963-32-3-7.938 13.829-12.271 28.829-13 45-.19-19.672-7.356-36.172-21.5-49.5-12.125-7.849-20.625-5.015-25.5 8.5-2.24-10.038.594-18.371 8.5-25z"/><path style="opacity:1" fill="#fe9900" d="M78.5 92.5h9c.17 1.322-.163 2.489-1 3.5-3.323.932-6.323.432-9-1.5l1-2z"/><path style="opacity:1" d="M87.5 92.5c.28 4.79.28 9.791 0 15h-9a52.418 52.418 0 0 0-1-13c2.677 1.932 5.677 2.432 9 1.5.837-1.011 1.17-2.178 1-3.5z"/><path style="opacity:1" fill="#fe9900" d="M80.5 98.5h4v7h-4v-7z"/><path style="opacity:1" fill="#003266" d="M46.5 101.5c6.517-.663 11.85 1.504 16 6.5a143.191 143.191 0 0 0-12.5-2.5 18.285 18.285 0 0 0-8.5 2l-1-.5c1.571-2.409 3.571-4.242 6-5.5zM108.5 101.5c8.77-1.514 14.27 1.819 16.5 10-9.017-6.596-18.017-6.596-27 0 .222-1.956 1.055-3.79 2.5-5.5a48.484 48.484 0 0 1 8-4.5z"/><path style="opacity:1" fill="#fefffe" d="M48.5 107.5c10.205 1.184 18.372 5.85 24.5 14a71.475 71.475 0 0 1 6 18 1282.549 1282.549 0 0 0 3.5 25c1.832-10.654 3.666-21.321 5.5-32 2.509-7.852 6.675-14.685 12.5-20.5 13.929-6.552 23.763-2.719 29.5 11.5.667 3 .667 6 0 9-6.153-11.063-15.319-14.229-27.5-9.5-8.32 3.794-12.82 10.294-13.5 19.5a750.211 750.211 0 0 0-2.5 22 9.86 9.86 0 0 0 6 1c-.525-10.15 1.308-19.817 5.5-29 9.305-10.246 18.305-10.246 27 0 3.505 5.022 4.172 10.355 2 16-5.419-9.458-13.252-12.291-23.5-8.5-2.167 1.5-4 3.333-5.5 5.5-1.76 5.217-2.426 10.551-2 16 1.3 1.48 2.966 2.146 5 2a164.378 164.378 0 0 0 17.5-4 55.663 55.663 0 0 1 15 4.5 29.13 29.13 0 0 0 12.5-.5c1.713.637 1.879 1.637.5 3a120.496 120.496 0 0 1-9 9.5c-6.155.464-12.155-.369-18-2.5a221.236 221.236 0 0 1-17.5 4 121 121 0 0 1-24-6 672.194 672.194 0 0 1-20.5 4 654.365 654.365 0 0 1-17.5-4c-5.066 1.674-10.233 2.174-15.5 1.5-3.388-2.786-6.054-6.119-8-10l11-1c4.475-2.478 9.308-3.978 14.5-4.5a49.016 49.016 0 0 1 14.5 3.5 60.93 60.93 0 0 0 11 .5c2.072-9.352-.595-16.852-8-22.5-9.602-2.909-17.102-.075-22.5 8.5-2.047-12.599 2.953-20.599 15-24 10.905 2.239 16.905 8.905 18 20l1 17c1.667 1.333 3.333 1.333 5 0 3.64-14.604.474-27.437-9.5-38.5-14.889-9.323-26.056-6.156-33.5 9.5-2.08-13.669 3.086-23.003 15.5-28z"/><path style="opacity:1" fill="#003266" d="M62.5 127.5c-10.377-4.216-18.877-1.882-25.5 7 1.25-4.932 4.417-8.432 9.5-10.5 6.011-1.378 11.345-.211 16 3.5zM62.5 127.5c5.553 2.566 9.053 6.9 10.5 13a68.762 68.762 0 0 1 1 22 124.628 124.628 0 0 0-3-23c-2.117-4.589-4.95-8.589-8.5-12z"/><path style="opacity:1" fill="#fefffe" d="M-.5 130.5c6.68 40.679 30.012 66.012 70 76h-70v-76zM165.5 132.5v74h-70a236.853 236.853 0 0 1 15-4.5c30.911-13.372 49.245-36.539 55-69.5z"/><path style="opacity:1" fill="#cb0000" d="M36.5 178.5a349.189 349.189 0 0 1 21 3 281.43 281.43 0 0 0 19-3 170.806 170.806 0 0 0 25 5 180.34 180.34 0 0 0 18.5-3 57.492 57.492 0 0 1 13.5 3.5c-18.777 15.782-40.444 21.782-65 18-15.284-3.142-28.617-9.975-40-20.5a52.752 52.752 0 0 1 8-3z"/></svg>
